icons/logo-github-24.svg

<svg width="68" height="24" viewBox="0 0 68 24">
  <path
    d="M27.7992 17.9083H27.7691C27.7826 17.9083 27.7916 17.9217 27.8051 17.9246C27.8066 17.9246 27.8127 17.9232 27.8141 17.9232L27.7992 17.9083ZM27.8051 17.9246C27.6656 17.9261 27.3146 17.9976 26.944 17.9976C25.7738 17.9976 25.3688 17.4625 25.3688 16.7639V12.1115H27.7541C27.8892 12.1115 27.9942 11.9926 27.9942 11.8291V9.30231C27.9942 9.16854 27.8742 9.04963 27.7541 9.04963H25.3688V5.91339C25.3688 5.79448 25.2938 5.72017 25.1588 5.72017H21.9183C21.7833 5.72017 21.7082 5.79448 21.7082 5.91339V9.13881C21.7082 9.13881 20.073 9.54013 19.968 9.55499C19.848 9.58472 19.7729 9.68876 19.7729 9.80767V11.8291C19.7729 11.9926 19.893 12.1115 20.028 12.1115H21.6932V16.9868C21.6932 20.6136 24.2436 20.9851 25.9839 20.9851C26.779 20.9851 27.7391 20.7325 27.8892 20.6581C27.9792 20.6284 28.0242 20.5244 28.0242 20.4203V18.1908C28.0242 18.0436 27.9222 17.9455 27.8051 17.9246ZM63.3539 14.6533C63.3539 11.9629 62.2589 11.6062 61.1039 11.7251C60.2039 11.7846 59.4839 12.2305 59.4839 12.2305V17.4625C59.4839 17.4625 60.2189 17.9679 61.3139 17.9976C62.8589 18.0422 63.3539 17.4922 63.3539 14.6533ZM67 14.4154C67 19.5136 65.3348 20.9703 62.4243 20.9703C59.964 20.9703 58.6438 19.7366 58.6438 19.7366C58.6438 19.7366 58.5838 20.4203 58.5087 20.5095C58.4637 20.5987 58.3887 20.6284 58.2987 20.6284H56.0784C55.9284 20.6284 55.7933 20.5095 55.7933 20.3757L55.8233 3.8622C55.8233 3.72843 55.9434 3.60952 56.0784 3.60952H59.2739C59.4089 3.60952 59.5289 3.72843 59.5289 3.8622V9.4658C59.5289 9.4658 60.7591 8.67803 62.5593 8.67803L62.5443 8.6483C64.3446 8.6483 67 9.31717 67 14.4154ZM53.9181 9.04961H50.7676C50.6026 9.04961 50.5125 9.16852 50.5125 9.33202V17.4179C50.5125 17.4179 49.6874 17.9975 48.5623 17.9975C47.4371 17.9975 47.107 17.4922 47.107 16.3774V9.31716C47.107 9.18339 46.987 9.06448 46.852 9.06448H43.6415C43.5065 9.06448 43.3865 9.18339 43.3865 9.31716V16.9125C43.3865 20.1825 45.2318 21 47.7671 21C49.8524 21 51.5477 19.8555 51.5477 19.8555C51.5477 19.8555 51.6227 20.4352 51.6677 20.5244C51.6977 20.5987 51.8027 20.6581 51.9078 20.6581H53.9181C54.0831 20.6581 54.1731 20.5392 54.1731 20.4055L54.2031 9.30229C54.2031 9.16852 54.0831 9.04961 53.9181 9.04961ZM18.3622 9.03473H15.1672C15.0322 9.03473 14.9122 9.16851 14.9122 9.33201V20.2419C14.9122 20.5392 15.1072 20.6433 15.3622 20.6433H18.2422C18.5422 20.6433 18.6172 20.5095 18.6172 20.2419V9.28742C18.6172 9.15364 18.4972 9.03473 18.3622 9.03473ZM16.7872 4.01087C15.6322 4.01087 14.7172 4.91755 14.7172 6.06205C14.7172 7.20656 15.6322 8.11324 16.7872 8.11324C17.9122 8.11324 18.8272 7.20656 18.8272 6.06205C18.8272 4.91755 17.9122 4.01087 16.7872 4.01087ZM41.5262 3.63928H38.3607C38.2257 3.63928 38.1057 3.75819 38.1057 3.89196V9.9712H33.14V3.89196C33.14 3.75819 33.0199 3.63928 32.8849 3.63928H29.6894C29.5544 3.63928 29.4344 3.75819 29.4344 3.89196V20.4055C29.4344 20.5393 29.5694 20.6582 29.6894 20.6582H32.8849C33.0199 20.6582 33.14 20.5393 33.14 20.4055V13.3452H38.1057L38.0757 20.4055C38.0757 20.5393 38.1957 20.6582 38.3307 20.6582H41.5262C41.6612 20.6582 41.7812 20.5393 41.7812 20.4055V3.89196C41.7812 3.75819 41.6612 3.63928 41.5262 3.63928ZM13.217 10.9522V19.4839C13.217 19.5434 13.202 19.6474 13.127 19.6771C13.127 19.6771 11.2517 21 8.16122 21C4.42566 21 0 19.8406 0 12.2007C0 4.56079 3.87058 2.98524 7.65114 3.0001C10.9216 3.0001 12.2418 3.72842 12.4519 3.8622C12.5119 3.93651 12.5419 3.99597 12.5419 4.07029L11.9118 6.71602C11.9118 6.84979 11.7768 7.01329 11.6117 6.9687C11.0717 6.8052 10.2615 6.4782 8.35625 6.4782C6.15092 6.4782 3.78056 7.10248 3.78056 12.0223C3.78056 16.9422 6.0309 17.5219 7.65114 17.5219C9.03135 17.5219 9.52642 17.3584 9.52642 17.3584V13.9398H7.32109C7.15607 13.9398 7.03605 13.8209 7.03605 13.6871V10.9522C7.03605 10.8184 7.15607 10.6995 7.32109 10.6995H12.9319C13.097 10.6995 13.217 10.8184 13.217 10.9522Z" />
</svg>

<svg xmlns="http://www.w3.org/2000/svg" width="68" height="24" viewBox="0 0 68 24"><path d="M27.8 17.908h-.03c.013 0 .022.014.035.017l.01-.002-.016-.015Zm.005.017c-.14.001-.49.073-.861.073-1.17 0-1.575-.536-1.575-1.234v-4.652h2.385c.135 0 .24-.12.24-.283V9.302c0-.133-.12-.252-.24-.252H25.37V5.913c0-.119-.075-.193-.21-.193h-3.24c-.136 0-.21.074-.21.193V9.14s-1.636.401-1.741.416a.255.255 0 0 0-.195.253v2.021c0 .164.12.282.255.282h1.665v4.876c0 3.627 2.55 3.998 4.29 3.998.796 0 1.756-.252 1.906-.327.09-.03.135-.134.135-.238v-2.23a.264.264 0 0 0-.219-.265Zm35.549-3.272c0-2.69-1.095-3.047-2.25-2.928-.9.06-1.62.505-1.62.505v5.232s.735.506 1.83.536c1.545.044 2.04-.506 2.04-3.345ZM67 14.415c0 5.099-1.665 6.555-4.576 6.555-2.46 0-3.78-1.233-3.78-1.233s-.06.683-.135.773c-.045.089-.12.118-.21.118h-2.22c-.15 0-.286-.119-.286-.252l.03-16.514a.26.26 0 0 1 .255-.252h3.196a.26.26 0 0 1 .255.252v5.604s1.23-.788 3.03-.788l-.015-.03c1.8 0 4.456.67 4.456 5.767ZM53.918 9.05h-3.15c-.165 0-.255.119-.255.282v8.086s-.826.58-1.95.58c-1.126 0-1.456-.506-1.456-1.62v-7.06a.262.262 0 0 0-.255-.254h-3.21a.262.262 0 0 0-.256.253v7.596c0 3.27 1.846 4.087 4.381 4.087 2.085 0 3.78-1.145 3.78-1.145s.076.58.12.67c.03.074.136.133.24.133h2.011a.243.243 0 0 0 .255-.253l.03-11.103c0-.133-.12-.252-.285-.252Zm-35.556-.015h-3.195c-.135 0-.255.134-.255.297v10.91c0 .297.195.401.45.401h2.88c.3 0 .375-.134.375-.401V9.287a.262.262 0 0 0-.255-.252ZM16.787 4.01c-1.155 0-2.07.907-2.07 2.051 0 1.145.915 2.051 2.07 2.051a2.04 2.04 0 0 0 2.04-2.05 2.04 2.04 0 0 0-2.04-2.052Zm24.74-.372H38.36a.262.262 0 0 0-.255.253v6.08H33.14v-6.08a.262.262 0 0 0-.255-.253h-3.196a.262.262 0 0 0-.255.253v16.514c0 .133.135.252.255.252h3.196a.262.262 0 0 0 .255-.253v-7.06h4.966l-.03 7.06c0 .134.12.253.255.253h3.195a.262.262 0 0 0 .255-.253V3.892a.262.262 0 0 0-.255-.253Zm-28.31 7.313v8.532c0 .06-.015.163-.09.193 0 0-1.875 1.323-4.966 1.323C4.426 21 0 19.84 0 12.2S3.87 2.986 7.651 3c3.27 0 4.59.728 4.8.862.06.075.09.134.09.208l-.63 2.646c0 .134-.134.297-.3.253-.54-.164-1.35-.49-3.255-.49-2.205 0-4.575.623-4.575 5.543s2.25 5.5 3.87 5.5c1.38 0 1.875-.164 1.875-.164V13.94H7.321c-.165 0-.285-.12-.285-.253v-2.735c0-.134.12-.252.285-.252h5.61c.166 0 .286.118.286.252Z"/></svg>
